symbols/web/nest_secure_alarm/materialsymbolsoutlined/nest_secure_alarm_wght600_40px.svg

<svg xmlns="http://www.w3.org/2000/svg" height="40" width="40"><path d="M20 21.542q.667 0 1.104-.459.438-.458.438-1.083 0-.667-.438-1.104-.437-.438-1.104-.438-.625 0-1.083.438-.459.437-.459 1.104 0 .625.459 1.083.458.459 1.083.459Zm5 0q.667 0 1.104-.459.438-.458.438-1.083 0-.667-.438-1.104-.437-.438-1.104-.438-.625 0-1.083.438-.459.437-.459 1.104 0 .625.459 1.083.458.459 1.083.459Zm-10 0q.667 0 1.104-.459.438-.458.438-1.083 0-.667-.438-1.104-.437-.438-1.104-.438-.625 0-1.083.438-.459.437-.459 1.104 0 .625.459 1.083.458.459 1.083.459Zm5 5q.667 0 1.104-.459.438-.458.438-1.083 0-.667-.438-1.104-.437-.438-1.104-.438-.625 0-1.083.438-.459.437-.459 1.104 0 .625.459 1.083.458.459 1.083.459Zm5 0q.667 0 1.104-.459.438-.458.438-1.083 0-.667-.438-1.104-.437-.438-1.104-.438-.625 0-1.083.438-.459.437-.459 1.104 0 .625.459 1.083.458.459 1.083.459Zm-10 0q.667 0 1.104-.459.438-.458.438-1.083 0-.667-.438-1.104-.437-.438-1.104-.438-.625 0-1.083.438-.459.437-.459 1.104 0 .625.459 1.083.458.459 1.083.459Zm5-10q.667 0 1.104-.459.438-.458.438-1.083 0-.667-.438-1.104-.437-.438-1.104-.438-.625 0-1.083.438-.459.437-.459 1.104 0 .625.459 1.083.458.459 1.083.459Zm5 0q.667 0 1.104-.459.438-.458.438-1.083 0-.667-.438-1.104-.437-.438-1.104-.438-.625 0-1.083.438-.459.437-.459 1.104 0 .625.459 1.083.458.459 1.083.459Zm-10 0q.667 0 1.104-.459.438-.458.438-1.083 0-.667-.438-1.104-.437-.438-1.104-.438-.625 0-1.083.438-.459.437-.459 1.104 0 .625.459 1.083.458.459 1.083.459Zm5 20.791q-3.583 0-6.75-1.354t-5.521-3.708q-2.354-2.354-3.708-5.521T2.667 20q0-3.583 1.375-6.75t3.708-5.5q2.333-2.333 5.5-3.708T20 2.667q3.583 0 6.75 1.375t5.5 3.708q2.333 2.333 3.708 5.5T37.333 20q0 3.583-1.375 6.75t-3.708 5.5q-2.333 2.333-5.5 3.708T20 37.333Zm0-3.666q5.667 0 9.667-4t4-9.667q0-5.667-4-9.667t-9.667-4q-5.667 0-9.667 4t-4 9.667q0 5.667 4 9.667t9.667 4ZM20 20Z"/></svg>

<svg xmlns="http://www.w3.org/2000/svg" height="40" width="40"><path d="M20 21.542Q20.667 21.542 21.104 21.083Q21.542 20.625 21.542 20Q21.542 19.333 21.104 18.896Q20.667 18.458 20 18.458Q19.375 18.458 18.917 18.896Q18.458 19.333 18.458 20Q18.458 20.625 18.917 21.083Q19.375 21.542 20 21.542ZM25 21.542Q25.667 21.542 26.104 21.083Q26.542 20.625 26.542 20Q26.542 19.333 26.104 18.896Q25.667 18.458 25 18.458Q24.375 18.458 23.917 18.896Q23.458 19.333 23.458 20Q23.458 20.625 23.917 21.083Q24.375 21.542 25 21.542ZM15 21.542Q15.667 21.542 16.104 21.083Q16.542 20.625 16.542 20Q16.542 19.333 16.104 18.896Q15.667 18.458 15 18.458Q14.375 18.458 13.917 18.896Q13.458 19.333 13.458 20Q13.458 20.625 13.917 21.083Q14.375 21.542 15 21.542ZM20 26.542Q20.667 26.542 21.104 26.083Q21.542 25.625 21.542 25Q21.542 24.333 21.104 23.896Q20.667 23.458 20 23.458Q19.375 23.458 18.917 23.896Q18.458 24.333 18.458 25Q18.458 25.625 18.917 26.083Q19.375 26.542 20 26.542ZM25 26.542Q25.667 26.542 26.104 26.083Q26.542 25.625 26.542 25Q26.542 24.333 26.104 23.896Q25.667 23.458 25 23.458Q24.375 23.458 23.917 23.896Q23.458 24.333 23.458 25Q23.458 25.625 23.917 26.083Q24.375 26.542 25 26.542ZM15 26.542Q15.667 26.542 16.104 26.083Q16.542 25.625 16.542 25Q16.542 24.333 16.104 23.896Q15.667 23.458 15 23.458Q14.375 23.458 13.917 23.896Q13.458 24.333 13.458 25Q13.458 25.625 13.917 26.083Q14.375 26.542 15 26.542ZM20 16.542Q20.667 16.542 21.104 16.083Q21.542 15.625 21.542 15Q21.542 14.333 21.104 13.896Q20.667 13.458 20 13.458Q19.375 13.458 18.917 13.896Q18.458 14.333 18.458 15Q18.458 15.625 18.917 16.083Q19.375 16.542 20 16.542ZM25 16.542Q25.667 16.542 26.104 16.083Q26.542 15.625 26.542 15Q26.542 14.333 26.104 13.896Q25.667 13.458 25 13.458Q24.375 13.458 23.917 13.896Q23.458 14.333 23.458 15Q23.458 15.625 23.917 16.083Q24.375 16.542 25 16.542ZM15 16.542Q15.667 16.542 16.104 16.083Q16.542 15.625 16.542 15Q16.542 14.333 16.104 13.896Q15.667 13.458 15 13.458Q14.375 13.458 13.917 13.896Q13.458 14.333 13.458 15Q13.458 15.625 13.917 16.083Q14.375 16.542 15 16.542ZM20 37.333Q16.417 37.333 13.25 35.979Q10.083 34.625 7.729 32.271Q5.375 29.917 4.021 26.75Q2.667 23.583 2.667 20Q2.667 16.417 4.042 13.25Q5.417 10.083 7.75 7.75Q10.083 5.417 13.25 4.042Q16.417 2.667 20 2.667Q23.583 2.667 26.75 4.042Q29.917 5.417 32.25 7.75Q34.583 10.083 35.958 13.25Q37.333 16.417 37.333 20Q37.333 23.583 35.958 26.75Q34.583 29.917 32.25 32.25Q29.917 34.583 26.75 35.958Q23.583 37.333 20 37.333ZM20 33.667Q25.667 33.667 29.667 29.667Q33.667 25.667 33.667 20Q33.667 14.333 29.667 10.333Q25.667 6.333 20 6.333Q14.333 6.333 10.333 10.333Q6.333 14.333 6.333 20Q6.333 25.667 10.333 29.667Q14.333 33.667 20 33.667ZM20 20Q20 20 20 20Q20 20 20 20Q20 20 20 20Q20 20 20 20Q20 20 20 20Q20 20 20 20Q20 20 20 20Q20 20 20 20Z"/></svg>
